incomeartour/img/icons/page.svg

<svg width="28" height="38" viewBox="0 0 28 38" fill="none" xmlns="http://www.w3.org/2000/svg">
<path d="M24.497 36.5338H24.4968L3.316 36.5249C3.31593 36.5249 3.31586 36.5249 3.31579 36.5249C2.00319 36.5248 0.937166 35.4637 0.937166 34.1491V3.85384C0.937166 2.54002 2.00285 1.47501 3.316 1.47501H19.2462H20.0329L19.699 2.18725C19.6116 2.37363 19.5623 2.57304 19.5623 2.78163V7.56303C19.5623 8.34525 20.196 8.97896 20.9782 8.97896H25.7596C25.9595 8.97896 26.1461 8.93997 26.3133 8.86892L27.0101 8.57286L27.0088 9.32992L26.9678 34.3068L24.497 36.5338ZM24.497 36.5338C25.7207 36.5338 26.9673 35.6984 26.9678 34.3076L24.497 36.5338ZM27.2742 7.37959C27.3033 7.41011 27.3186 7.44883 27.3189 7.48894C27.3189 7.48906 27.3189 7.48918 27.3189 7.4893L27.3827 34.2895C27.3827 34.2896 27.3827 34.2898 27.3827 34.2899C27.3825 35.7352 26.1442 36.8439 24.6078 36.8439L3.316 36.8449C1.82487 36.8449 0.617188 35.6393 0.617188 34.1495V3.85384C0.617188 2.36342 1.82557 1.15503 3.316 1.15503H21.2472C21.2882 1.15503 21.331 1.17244 21.3628 1.20557L27.2742 7.37959ZM27.2742 7.37959C27.2741 7.37948 27.274 7.37937 27.2739 7.37926L21.363 1.2057L27.2742 7.37959ZM21.0997 1.87754L20.8616 1.6396L20.5516 1.77063C20.1575 1.93721 19.8827 2.32747 19.8827 2.78114V7.56204C19.8827 8.16729 20.3729 8.65799 20.9782 8.65799H25.7596C26.216 8.65799 26.6059 8.37947 26.7709 7.98413L26.9001 7.67482L26.663 7.43787L21.0997 1.87754Z" fill="white" stroke="#272727"/>
<path d="M20.2097 13.9814H5.73441C5.30816 13.9814 4.96191 13.6354 4.96191 13.2089C4.96191 12.7824 5.30816 12.4364 5.73441 12.4364H20.2097C20.6357 12.4364 20.9817 12.7821 20.9817 13.2089C20.9817 13.6357 20.6357 13.9814 20.2097 13.9814Z" fill="white" stroke="#272727"/>
<path d="M20.2097 19.8473H5.73441C5.30816 19.8473 4.96191 19.5008 4.96191 19.0753C4.96191 18.649 5.3079 18.3033 5.73441 18.3033H20.2097C20.6359 18.3033 20.9817 18.6488 20.9817 19.0753C20.9817 19.5014 20.6358 19.8473 20.2097 19.8473Z" fill="white" stroke="#272727"/>
<path d="M13.1142 24.5942H13.1167C13.5432 24.5942 13.8887 24.94 13.8887 25.3662C13.8887 25.7929 13.544 26.1376 13.1178 26.1382C13.1174 26.1382 13.1171 26.1382 13.1167 26.1382L5.73683 26.1026L5.73683 26.1026H5.73441C5.30792 26.1026 4.96191 25.7569 4.96191 25.3296C4.96191 24.9041 5.30744 24.5582 5.73333 24.5576C5.73369 24.5576 5.73405 24.5576 5.73441 24.5576L13.1142 24.5942Z" fill="white" stroke="#272727"/>
<path d="M22.0267 29.3124V29.3126C22.0267 30.3041 21.2213 31.1078 20.2285 31.1078C19.2357 31.1078 18.4332 30.3046 18.4332 29.3126C18.4332 28.3188 19.237 27.5139 20.2285 27.5139C21.221 27.5139 22.0271 28.3197 22.0267 29.3124Z" fill="white" stroke="#272727"/>
<path d="M16.8276 29.6016C16.8186 29.5006 16.8141 29.3984 16.8141 29.295C16.8141 28.9292 16.8715 28.5767 16.9779 28.2462C16.8409 28.2855 16.7416 28.391 16.7137 28.5224L16.8276 29.6016ZM16.8276 29.6016C16.7094 29.5317 16.634 29.4063 16.634 29.2678C16.634 29.0168 16.6616 28.7677 16.7136 28.5225L16.8276 29.6016ZM22.9599 31.3675C23.2108 31.0389 23.4035 30.6635 23.5225 30.2568C23.5672 30.3481 23.5724 30.4506 23.5371 30.543C23.4478 30.7753 23.3325 30.9992 23.1955 31.2105L22.9599 31.3675ZM22.9599 31.3675C23.0573 31.3492 23.1416 31.2935 23.1955 31.2106L22.9599 31.3675ZM23.7445 28.8306L23.7446 28.8312C23.7573 28.935 23.7248 29.0371 23.6551 29.1159C23.6324 28.6765 23.5266 28.259 23.3531 27.8788C23.461 27.916 23.542 27.9966 23.5774 28.0989L23.5775 28.0993C23.6586 28.333 23.7139 28.5785 23.7445 28.8306ZM22.6227 26.6455C22.7061 26.7221 22.7475 26.8357 22.7328 26.9553C22.4326 26.6358 22.0718 26.3738 21.6688 26.1879C21.7846 26.1297 21.9151 26.1337 22.0197 26.196L22.0215 26.1971C22.2354 26.3232 22.437 26.4743 22.622 26.6448L22.6227 26.6455ZM20.354 25.7017C20.4815 25.7074 20.597 25.7811 20.6606 25.9003C20.5212 25.8831 20.3794 25.8742 20.2354 25.8742C19.9243 25.8742 19.623 25.9157 19.3365 25.9935C19.3827 25.8583 19.4921 25.7657 19.6222 25.7446L19.623 25.7444C19.8121 25.7134 20.0065 25.6981 20.2033 25.6981C20.2494 25.6981 20.2965 25.6997 20.354 25.7017ZM18.025 26.4392C18.1316 26.3575 18.2756 26.3421 18.4064 26.4036C18.0216 26.6474 17.6888 26.9659 17.4284 27.3387C17.3724 27.2036 17.3955 27.06 17.4807 26.9605L17.4827 26.9582C17.644 26.7675 17.8265 26.5931 18.025 26.4392ZM17.0063 30.8568C16.9452 30.7341 16.9552 30.5931 17.025 30.4807C17.1825 30.9074 17.4227 31.2941 17.7261 31.6213C17.6007 31.6308 17.4832 31.5809 17.4089 31.488C17.2522 31.2907 17.1175 31.08 17.0064 30.857L17.0063 30.8568ZM18.7875 32.5432C18.6836 32.4983 18.6077 32.4066 18.5812 32.2911C18.9526 32.4967 19.3662 32.6352 19.8059 32.6902C19.7203 32.7592 19.6112 32.7874 19.5044 32.7661L19.4065 33.2564L19.5048 32.7662C19.2565 32.7165 19.0162 32.6422 18.7882 32.5434L18.7875 32.5432ZM21.2312 32.6839C21.1305 32.714 21.0245 32.6994 20.9356 32.6452C21.3566 32.5577 21.7495 32.3928 22.0985 32.1661C22.0731 32.2638 22.0108 32.346 21.9232 32.3945C21.7034 32.5148 21.4716 32.6122 21.2313 32.6839L21.2312 32.6839ZM20.3734 25.2021L20.372 25.202C20.3156 25.2001 20.2597 25.1981 20.2033 25.1981C19.9807 25.1981 19.7592 25.2154 19.542 25.251L20.3734 25.2021Z" fill="white" stroke="#272727"/>
</svg>

<svg width="28" height="38" fill="none" xmlns="http://www.w3.org/2000/svg"><path d="M24.497 36.534h0l-21.181-.01s0 0 0 0A2.376 2.376 0 01.937 34.15V3.854a2.38 2.38 0 012.379-2.379h16.717l-.334.712a1.392 1.392 0 00-.137.595v4.781c0 .782.634 1.416 1.416 1.416h4.782c.2 0 .386-.039.553-.11l.697-.296-.001.757-.041 24.977-2.471 2.227zm0 0c1.224 0 2.47-.836 2.47-2.226l-2.47 2.226zM27.274 7.38c.03.03.045.069.045.109 0 0 0 0 0 0l.064 26.8s0 0 0 0c0 1.446-1.239 2.555-2.775 2.555H3.316A2.696 2.696 0 01.617 34.15V3.854a2.699 2.699 0 012.699-2.699h17.931c.041 0 .084.017.116.05l5.911 6.175zm0 0s0 0 0 0l-5.911-6.174 5.911 6.174zM21.1 1.878l-.238-.238-.31.13a1.096 1.096 0 00-.67 1.011v4.781c0 .605.49 1.096 1.096 1.096h4.782c.456 0 .846-.279 1.01-.674l.13-.31-.237-.236-5.563-5.56z" fill="#fff" stroke="#272727"/><path d="M20.21 13.981H5.734a.773.773 0 010-1.545H20.21a.772.772 0 010 1.545zm0 5.866H5.734a.773.773 0 010-1.544H20.21a.772.772 0 010 1.544zm-7.096 4.747h.003a.772.772 0 010 1.544s0 0 0 0l-7.38-.035h0-.003a.773.773 0 010-1.545s0 0 0 0l7.38.036zm8.913 4.718v0a1.797 1.797 0 11-3.594-.002 1.797 1.797 0 013.594.002zm-5.199.29a3.453 3.453 0 01.15-1.356.368.368 0 00-.264.276l.114 1.08zm0 0a.389.389 0 01-.194-.334c0-.251.028-.5.08-.745l.114 1.079zm6.132 1.765c.25-.328.444-.704.563-1.11.044.091.05.194.014.286a3.69 3.69 0 01-.341.668l-.236.157zm0 0a.358.358 0 00.235-.156l-.235.157zm.784-2.536h0a.36.36 0 01-.089.285 3.397 3.397 0 00-.302-1.237.357.357 0 01.224.22h0c.082.234.137.48.167.732zm-1.121-2.186a.36.36 0 01.11.31c-.3-.32-.661-.581-1.064-.767a.363.363 0 01.35.008l.003.001c.213.126.415.277.6.448h0zm-2.269-.943c.128.005.243.08.307.198a3.47 3.47 0 00-1.325.094.365.365 0 01.286-.25h.001a3.59 3.59 0 01.731-.042zm-2.329.737a.365.365 0 01.381-.035 3.44 3.44 0 00-.978.935.363.363 0 01.053-.378l.002-.003a3.6 3.6 0 01.542-.519zm-1.019 4.418a.385.385 0 01.019-.376c.158.426.398.813.701 1.14a.367.367 0 01-.317-.133 3.582 3.582 0 01-.403-.631h0zm1.782 1.686a.358.358 0 01-.207-.252c.372.206.785.344 1.225.4a.365.365 0 01-.302.075l-.098.49.099-.49a3.558 3.558 0 01-.717-.223h0zm2.443.14a.364.364 0 01-.295-.038 3.406 3.406 0 001.163-.479.363.363 0 01-.176.229c-.22.12-.451.217-.692.289h0zm-.858-7.48l-.001-.001c-.056-.002-.112-.004-.169-.004-.222 0-.444.017-.661.053l.831-.049z" fill="#fff" stroke="#272727"/></svg>
